X: 1
T: Keepin' It Rootian
C: Andy Reiner
%D:2014
R: reel, march
S: https://www.patreon.com/posts/rustic-roots-27198819
Z: 2020 John Chambers <jc:trillian.mit.edu>
M: 4/4
L: 1/8
K: A
|:\
"A"cBAE F2E2 | EFA2 "E"B2AB | "A"cBA2 f2g2 | afec "E"B2AB |
"A"cBAE F2E2 | EFA2 "E"B2AB | "D"A2F2 f2E2 | "A"FA2B A2AB :|
|:\
"F#m"cBA2 f2e2 | "A"EFA2 "E"B2cB | "F#m"A2f2 g2a2- | afec "E"B2cB |
"D"A2F2 F2E2 | "A"EFA2 "E"B2cB | "D"A2F2 F2E2 | "A"FA2B A2AB :|
